icons/svg/tourist/aquarium.svg

<?xml version="1.0" encoding="UTF-8" standalone="no"?>
<!-- Created with Inkscape (http://www.inkscape.org/) -->

<svg
   xmlns:dc="http://purl.org/dc/elements/1.1/"
   xmlns:cc="http://creativecommons.org/ns#"
   xmlns:rdf="http://www.w3.org/1999/02/22-rdf-syntax-ns#"
   xmlns:svg="http://www.w3.org/2000/svg"
   xmlns="http://www.w3.org/2000/svg"
   xmlns:sodipodi="http://sodipodi.sourceforge.net/DTD/sodipodi-0.dtd"
   xmlns:inkscape="http://www.inkscape.org/namespaces/inkscape"
   version="1.0"
   width="580"
   height="580"
   id="svg2"
   sodipodi:version="0.32"
   inkscape:version="0.48.4 r9939"
   sodipodi:docname="aquarium.svg"
   inkscape:output_extension="org.inkscape.output.svg.inkscape">
  <metadata
     id="metadata2975">
    <rdf:RDF>
      <cc:Work
         rdf:about="">
        <dc:format>image/svg+xml</dc:format>
        <dc:type
           rdf:resource="http://purl.org/dc/dcmitype/StillImage" />
        <cc:license
           rdf:resource="http://web.resource.org/cc/PublicDomain" />
        <dc:language>en</dc:language>
        <dc:title></dc:title>
      </cc:Work>
    </rdf:RDF>
  </metadata>
  <sodipodi:namedview
     inkscape:window-height="1004"
     inkscape:window-width="1920"
     inkscape:pageshadow="2"
     inkscape:pageopacity="0.0"
     guidetolerance="10.0"
     gridtolerance="10.0"
     objecttolerance="10.0"
     borderopacity="1.0"
     bordercolor="#666666"
     pagecolor="#ffffff"
     id="base"
     inkscape:zoom="0.46083856"
     inkscape:cx="134.96469"
     inkscape:cy="360.82227"
     inkscape:window-x="1680"
     inkscape:window-y="0"
     inkscape:current-layer="svg2"
     showgrid="false"
     inkscape:window-maximized="1" />
  <defs
     id="defs4">
    <inkscape:perspective
       sodipodi:type="inkscape:persp3d"
       inkscape:vp_x="0 : 290 : 1"
       inkscape:vp_y="0 : 1000 : 0"
       inkscape:vp_z="580 : 290 : 1"
       inkscape:persp3d-origin="290 : 193.33333 : 1"
       id="perspective2441" />
    <inkscape:perspective
       id="perspective3452"
       inkscape:persp3d-origin="30 : 20 : 1"
       inkscape:vp_z="60 : 30 : 1"
       inkscape:vp_y="0 : 1000 : 0"
       inkscape:vp_x="0 : 30 : 1"
       sodipodi:type="inkscape:persp3d" />
    <symbol
       viewBox="244.5 110 489 219.9"
       id="symbol-university">
      <path
         id="path4460"
         d="M79,43l57,119c0,0,21-96,104-96s124,106,124,106l43-133l82-17L0,17L79,43z" />
      <path
         id="path4462"
         d="M94,176l-21,39"
         stroke-width="20"
         stroke="#000000"
         fill="none" />
      <path
         id="path4464"
         d="M300,19c0,10.5-22.6,19-50.5,19S199,29.5,199,19s22.6-19,50.5-19S300,8.5,300,19z" />
      <path
         id="path4466"
         d="M112,216l-16-38L64,88c0,0-9-8-4-35s16-24,16-24"
         stroke-width="20"
         stroke="#000000"
         ill="none" />
    </symbol>
    <inkscape:perspective
       id="perspective4471"
       inkscape:persp3d-origin="372.04724 : 350.78739 : 1"
       inkscape:vp_z="744.09448 : 526.18109 : 1"
       inkscape:vp_y="0 : 1000 : 0"
       inkscape:vp_x="0 : 526.18109 : 1"
       sodipodi:type="inkscape:persp3d" />
    <inkscape:perspective
       id="perspective4668"
       inkscape:persp3d-origin="6 : 4 : 1"
       inkscape:vp_z="12 : 6 : 1"
       inkscape:vp_y="0 : 1000 : 0"
       inkscape:vp_x="0 : 6 : 1"
       sodipodi:type="inkscape:persp3d" />
    <inkscape:perspective
       id="perspective4904"
       inkscape:persp3d-origin="16 : 10.666667 : 1"
       inkscape:vp_z="32 : 16 : 1"
       inkscape:vp_y="0 : 1000 : 0"
       inkscape:vp_x="0 : 16 : 1"
       sodipodi:type="inkscape:persp3d" />
    <marker
       style="overflow:visible;"
       id="Arrow2Lend"
       refX="0.0"
       refY="0.0"
       orient="auto"
       inkscape:stockid="Arrow2Lend">
      <path
         transform="scale(1.1) rotate(180) translate(1,0)"
         d="M 8.7185878,4.0337352 L -2.2072895,0.016013256 L 8.7185884,-4.0017078 C 6.9730900,-1.6296469 6.9831476,1.6157441 8.7185878,4.0337352 z "
         style="font-size:12.0;fill-rule:evenodd;stroke-width:0.62500000;stroke-linejoin:round;"
         id="path4137" />
    </marker>
    <marker
       style="overflow:visible;"
       id="Arrow1Mend"
       refX="0.0"
       refY="0.0"
       orient="auto"
       inkscape:stockid="Arrow1Mend">
      <path
         transform="scale(0.4) rotate(180) translate(10,0)"
         style="fill-rule:evenodd;stroke:#000000;stroke-width:1.0pt;marker-start:none;"
         d="M 0.0,0.0 L 5.0,-5.0 L -12.5,0.0 L 5.0,5.0 L 0.0,0.0 z "
         id="path4125" />
    </marker>
    <marker
       style="overflow:visible"
       id="TriangleOutL"
       refX="0.0"
       refY="0.0"
       orient="auto"
       inkscape:stockid="TriangleOutL">
      <path
         transform="scale(0.8)"
         style="fill-rule:evenodd;stroke:#000000;stroke-width:1.0pt;marker-start:none"
         d="M 5.77,0.0 L -2.88,5.0 L -2.88,-5.0 L 5.77,0.0 z "
         id="path4214" />
    </marker>
    <marker
       style="overflow:visible;"
       id="Arrow1Lend"
       refX="0.0"
       refY="0.0"
       orient="auto"
       inkscape:stockid="Arrow1Lend">
      <path
         transform="scale(0.8) rotate(180) translate(12.5,0)"
         style="fill-rule:evenodd;stroke:#000000;stroke-width:1.0pt;marker-start:none;"
         d="M 0.0,0.0 L 5.0,-5.0 L -12.5,0.0 L 5.0,5.0 L 0.0,0.0 z "
         id="path4119" />
    </marker>
    <marker
       style="overflow:visible"
       id="Tail"
       refX="0.0"
       refY="0.0"
       orient="auto"
       inkscape:stockid="Tail">
      <g
         transform="scale(-1.2)"
         id="g4152">
        <path
           style="fill:none;fill-rule:evenodd;stroke:#000000;stroke-width:0.8;marker-start:none;marker-end:none;stroke-linecap:round"
           d="M -3.8048674,-3.9585227 L 0.54352094,0"
           id="path4154" />
        <path
           style="fill:none;fill-rule:evenodd;stroke:#000000;stroke-width:0.8;marker-start:none;marker-end:none;stroke-linecap:round"
           d="M -1.2866832,-3.9585227 L 3.0617053,0"
           id="path4156" />
        <path
           style="fill:none;fill-rule:evenodd;stroke:#000000;stroke-width:0.8;marker-start:none;marker-end:none;stroke-linecap:round"
           d="M 1.3053582,-3.9585227 L 5.6537466,0"
           id="path4158" />
        <path
           style="fill:none;fill-rule:evenodd;stroke:#000000;stroke-width:0.8;marker-start:none;marker-end:none;stroke-linecap:round"
           d="M -3.8048674,4.1775838 L 0.54352094,0.21974226"
           id="path4160" />
        <path
           style="fill:none;fill-rule:evenodd;stroke:#000000;stroke-width:0.8;marker-start:none;marker-end:none;stroke-linecap:round"
           d="M -1.2866832,4.1775838 L 3.0617053,0.21974226"
           id="path4162" />
        <path
           style="fill:none;fill-rule:evenodd;stroke:#000000;stroke-width:0.8;marker-start:none;marker-end:none;stroke-linecap:round"
           d="M 1.3053582,4.1775838 L 5.6537466,0.21974226"
           id="path4164" />
      </g>
    </marker>
    <marker
       style="overflow:visible"
       id="Arrow1Sstart"
       refX="0.0"
       refY="0.0"
       orient="auto"
       inkscape:stockid="Arrow1Sstart">
      <path
         transform="scale(0.2) translate(6,0)"
         style="fill-rule:evenodd;stroke:#000000;stroke-width:1.0pt;marker-start:none"
         d="M 0.0,0.0 L 5.0,-5.0 L -12.5,0.0 L 5.0,5.0 L 0.0,0.0 z "
         id="path4128" />
    </marker>
    <marker
       style="overflow:visible;"
       id="Arrow1Send"
       refX="0.0"
       refY="0.0"
       orient="auto"
       inkscape:stockid="Arrow1Send">
      <path
         transform="scale(0.2) rotate(180) translate(6,0)"
         style="fill-rule:evenodd;stroke:#000000;stroke-width:1.0pt;marker-start:none;"
         d="M 0.0,0.0 L 5.0,-5.0 L -12.5,0.0 L 5.0,5.0 L 0.0,0.0 z "
         id="path4131" />
    </marker>
    <marker
       style="overflow:visible"
       id="SemiCircleOut"
       refX="0.0"
       refY="0.0"
       orient="auto"
       inkscape:stockid="SemiCircleOut">
      <path
         transform="scale(0.6) translate(7.125493,0.763446)"
         style="fill-rule:evenodd;stroke:#000000;stroke-width:1.0pt;marker-start:none;marker-end:none"
         d="M -2.5,-0.80913858 C -2.5,1.9508614 -4.7400000,4.1908614 -7.5,4.1908614 L -7.5,-5.8091386 C -4.7400000,-5.8091386 -2.5,-3.5691386 -2.5,-0.80913858 z "
         id="path4235" />
    </marker>
    <marker
       style="overflow:visible;"
       id="Arrow2Send"
       refX="0.0"
       refY="0.0"
       orient="auto"
       inkscape:stockid="Arrow2Send">
      <path
         transform="scale(0.3) rotate(180) translate(-2.3,0)"
         d="M 8.7185878,4.0337352 L -2.2072895,0.016013256 L 8.7185884,-4.0017078 C 6.9730900,-1.6296469 6.9831476,1.6157441 8.7185878,4.0337352 z "
         style="font-size:12.0;fill-rule:evenodd;stroke-width:0.62500000;stroke-linejoin:round;"
         id="path4149" />
    </marker>
    <marker
       style="overflow:visible"
       id="TriangleOutS"
       refX="0.0"
       refY="0.0"
       orient="auto"
       inkscape:stockid="TriangleOutS">
      <path
         transform="scale(0.2)"
         style="fill-rule:evenodd;stroke:#000000;stroke-width:1.0pt;marker-start:none"
         d="M 5.77,0.0 L -2.88,5.0 L -2.88,-5.0 L 5.77,0.0 z "
         id="path4220" />
    </marker>
    <marker
       style="overflow:visible"
       id="CurveIn"
       refX="0.0"
       refY="0.0"
       orient="auto"
       inkscape:stockid="CurveIn">
      <path
         transform="scale(0.6)"
         style="fill-rule:evenodd;stroke:#000000;stroke-width:1.0pt;marker-start:none;marker-end:none;fill:none"
         d="M 4.6254930,-5.0456926 C 1.8654930,-5.0456926 -0.37450702,-2.8056926 -0.37450702,-0.045692580 C -0.37450702,2.7143074 1.8654930,4.9543074 4.6254930,4.9543074"
         id="path4238" />
    </marker>
    <marker
       orient="auto"
       refY="0"
       refX="0"
       id="InfiniteLineStart"
       inkscape:stockid="InfiniteLineStart"
       style="overflow:visible">
      <g
         transform="translate(-13,0)"
         id="g4298">
        <circle
           cx="3"
           cy="0"
           r="0.8"
           id="circle4300" />
        <circle
           cx="6.5"
           cy="0"
           r="0.8"
           id="circle4302" />
        <circle
           cx="10"
           cy="0"
           r="0.8"
           id="circle4304" />
      </g>
    </marker>
    <marker
       style="overflow:visible"
       id="StopS"
       refX="0.0"
       refY="0.0"
       orient="auto"
       inkscape:stockid="StopS">
      <path
         transform="scale(0.2)"
         style="fill:none;fill-opacity:0.75000000;fill-rule:evenodd;stroke:#000000;stroke-width:1.0pt"
         d="M 0.0,5.65 L 0.0,-5.65"
         id="path4229" />
    </marker>
    <marker
       style="overflow:visible"
       id="Arrow2Sstart"
       refX="0.0"
       refY="0.0"
       orient="auto"
       inkscape:stockid="Arrow2Sstart">
      <path
         transform="scale(0.3) translate(-2.3,0)"
         d="M 8.7185878,4.0337352 L -2.2072895,0.016013256 L 8.7185884,-4.0017078 C 6.9730900,-1.6296469 6.9831476,1.6157441 8.7185878,4.0337352 z "
         style="font-size:12.0;fill-rule:evenodd;stroke-width:0.62500000;stroke-linejoin:round"
         id="path4146" />
    </marker>
    <marker
       style="overflow:visible"
       id="DiamondS"
       refX="0.0"
       refY="0.0"
       orient="auto"
       inkscape:stockid="DiamondS">
      <path
         transform="scale(0.2)"
         style="fill-rule:evenodd;stroke:#000000;stroke-width:1.0pt;marker-start:none"
         d="M 0,-7.0710768 L -7.0710894,0 L 0,7.0710589 L 7.0710462,0 L 0,-7.0710768 z "
         id="path4202" />
    </marker>
    <marker
       orient="auto"
       refY="0"
       refX="0"
       id="RazorWire"
       inkscape:stockid="RazorWire">
       style=&quot;overflow:visible&quot;&gt;
      <path
   d="M 0.022727273,-0.74009011 L 0.022727273,0.69740989 L -7.7585227,3.0099099 L 10.678977,3.0099099 L 3.4914773,0.69740989 L 3.4914773,-0.74009011 L 10.741477,-2.8963401 L -7.7272727,-2.8963401 L 0.022727273,-0.74009011 z "
   style="fill:#808080;fill-opacity:1;fill-rule:evenodd;stroke:#000000;stroke-width:0.1pt"
   transform="scale(0.8,0.8)"
   id="path4286" />
</marker>
    <inkscape:perspective
       id="perspective5233"
       inkscape:persp3d-origin="16 : 10.666667 : 1"
       inkscape:vp_z="32 : 16 : 1"
       inkscape:vp_y="0 : 1000 : 0"
       inkscape:vp_x="0 : 16 : 1"
       sodipodi:type="inkscape:persp3d" />
    <inkscape:perspective
       id="perspective5412"
       inkscape:persp3d-origin="250 : 166.66667 : 1"
       inkscape:vp_z="500 : 250 : 1"
       inkscape:vp_y="0 : 1000 : 0"
       inkscape:vp_x="0 : 250 : 1"
       sodipodi:type="inkscape:persp3d" />
    <inkscape:perspective
       id="perspective5571"
       inkscape:persp3d-origin="202.85715 : 136.19048 : 1"
       inkscape:vp_z="405.71429 : 204.28572 : 1"
       inkscape:vp_y="0 : 1000 : 0"
       inkscape:vp_x="0 : 204.28572 : 1"
       sodipodi:type="inkscape:persp3d" />
    <inkscape:perspective
       id="perspective6552"
       inkscape:persp3d-origin="64 : 42.666667 : 1"
       inkscape:vp_z="128 : 64 : 1"
       inkscape:vp_y="0 : 1000 : 0"
       inkscape:vp_x="0 : 64 : 1"
       sodipodi:type="inkscape:persp3d" />
    <inkscape:perspective
       id="perspective8761"
       inkscape:persp3d-origin="238.5 : 114.33333 : 1"
       inkscape:vp_z="477 : 171.5 : 1"
       inkscape:vp_y="0 : 1000 : 0"
       inkscape:vp_x="0 : 171.5 : 1"
       sodipodi:type="inkscape:persp3d" />
  </defs>
  <g
     id="g1327">
    <path
       d="M 66.275,1.768 C 24.94,1.768 1.704,23.139 1.704,66.804 L 1.704,516.927 C 1.704,557.771 22.599,579.156 63.896,579.156 L 515.92,579.156 C 557.227,579.156 578.149,558.841 578.149,516.927 L 578.149,66.804 C 578.149,24.203 557.227,1.768 514.628,1.768 C 514.624,1.768 66.133,1.625 66.275,1.768 z "
       style="fill:#111;stroke:#eee;stroke-width:3.40799999"
       id="path1329" />
  </g>
  <path
     style="color:#000000;fill:#ffffff;fill-opacity:1;fill-rule:nonzero;stroke:none;marker:none;visibility:visible;display:inline;overflow:visible;enable-background:accumulate"
     inkscape:connector-curvature="0"
     d="m 549.71827,43.07892 c 0,0 -37.07754,111.51269 -150.93727,111.51269 -127.89967,0 -134.02887,-48.83082 -220.14082,-48.83082 -81.492197,0 -132.217263,12.67722 -132.217263,12.67722 0,0 58.062093,-65.02948 132.217263,-65.02948 74.18545,0 138.28631,47.46136 220.14082,47.46136 97.94774,0 150.93727,-57.79097 150.93727,-57.79097 z"
     id="path3" />
  <path
     style="color:#000000;fill:#ffffff;fill-opacity:1;fill-rule:nonzero;stroke:none;marker:none;visibility:visible;display:inline;overflow:visible;enable-background:accumulate"
     inkscape:connector-curvature="0"
     d="m 31.087977,184.88758 c 40.460671,0 62.947803,43.02245 62.947803,43.02245 26.20796,-17.01787 63.5374,-43.02245 99.70797,-43.02245 61.74821,0 101.65987,59.87765 101.65987,59.87765 0,0 -39.91166,59.87766 -101.65987,59.87766 -36.17057,0 -73.50001,-25.80127 -99.70797,-42.79879 0,0 -22.426212,42.79879 -62.947803,42.79879 0,0 20.331994,-32.77514 20.331994,-59.87766 0,-27.10251 -20.331994,-59.87765 -20.331994,-59.87765 z M 224.2417,251.2918 c 9.29177,0 16.81457,-7.38051 16.81457,-16.52991 0,-9.10872 -7.5228,-16.50955 -16.81457,-16.50955 -9.29169,0 -16.8145,7.38051 -16.8145,16.50955 0,9.1494 7.52281,16.52991 16.8145,16.52991 z"
     id="path7" />
  <path
     style="color:#000000;fill:#ffffff;fill-opacity:1;fill-rule:nonzero;stroke:none;marker:none;visibility:visible;display:inline;overflow:visible;enable-background:accumulate"
     d="m 467.27064,167.92581 c -0.11482,0.0279 -0.2702,0.12022 -0.39399,0.22186 -39.05484,32.11344 -64.92886,144.64451 -78.57003,146.14129 -105.73509,11.6018 -194.57459,66.78392 -227.88688,89.97862 -9.34796,6.90579 -6.92865,14.72545 0.56282,19.09087 8.4744,4.80786 20.41172,11.22503 35.28898,18.2769 5.04667,2.80009 50.47945,-9.56264 76.26246,1.33193 8.6816,3.66838 -41.54043,14.9374 -45.13836,12.35723 3.11537,4.77855 73.72506,27.3219 119.2621,34.85195 -0.12563,11.30599 58.2145,102.60188 66.18795,86.13085 1.10394,-2.2805 -28.34565,-80.1273 -17.84149,-79.91524 12.13092,0.95923 24.56326,1.47991 37.1463,1.47991 53.69482,0 126.23264,-12.17031 191.02199,-27.74834 1.17923,2.38645 28.21711,21.68371 34.33218,17.019 3.56413,-0.88828 -16.89731,-21.29335 -13.39518,-22.19868 39.31275,-10.16256 74.40913,-21.31558 98.77537,-31.30014 0,0 36.9061,77.93181 97.0869,106.99762 0,0 -49.97204,-88.17108 -42.5494,-131.19417 15.6039,-90.44284 94.49793,-200.97201 94.49793,-200.97201 C 790.44413,273.87326 741.53407,380.21902 741.53407,380.21902 680.47945,357.7052 570.4002,338.3698 479.87785,310.58918 464.26722,305.79841 474.49456,166.16157 467.27064,167.92568 z M 218.16535,395.8322 c 4.29397,0 7.76694,4.56602 7.76694,10.21139 0,5.64538 -3.47297,10.28539 -7.76694,10.28539 -4.29397,0 -7.82323,-4.64001 -7.82323,-10.28539 0,-5.64537 3.52926,-10.21139 7.82323,-10.21139 z"
     id="path7-1"
     inkscape:connector-curvature="0"
     sodipodi:nodetypes="ccscccsccscsccsccsccscsssss" />
  <circle
     transform="matrix(10.76865,0,0,10.76865,-49.497816,307.3602)"
     style="color:#000000;fill:#ffffff;fill-opacity:1;fill-rule:nonzero;stroke:none;marker:none;visibility:visible;display:inline;overflow:visible;enable-background:accumulate"
     sodipodi:ry="1.4349999"
     sodipodi:rx="1.4349999"
     sodipodi:cy="10.5"
     sodipodi:cx="9.5649996"
     cx="9.5649996"
     cy="10.5"
     r="1.4349999"
     id="circle11-4" />
  <circle
     transform="matrix(12.280816,0,0,12.280816,22.439225,379.13442)"
     style="color:#000000;fill:#ffffff;fill-opacity:1;fill-rule:nonzero;stroke:none;marker:none;visibility:visible;display:inline;overflow:visible;enable-background:accumulate"
     sodipodi:ry="1.4349999"
     sodipodi:rx="1.4349999"
     sodipodi:cy="10.5"
     sodipodi:cx="9.5649996"
     cx="9.5649996"
     cy="10.5"
     r="1.4349999"
     id="circle11-7" />
  <circle
     transform="matrix(11.524733,0,0,11.524733,201.18126,77.700153)"
     style="color:#000000;fill:#ffffff;fill-opacity:1;fill-rule:nonzero;stroke:none;marker:none;visibility:visible;display:inline;overflow:visible;enable-background:accumulate"
     sodipodi:ry="1.4349999"
     sodipodi:rx="1.4349999"
     sodipodi:cy="10.5"
     sodipodi:cx="9.5649996"
     cx="9.5649996"
     cy="10.5"
     r="1.4349999"
     id="circle11-1" />
</svg>

<svg width="580" height="580" viewBox="0 0 580 580" fill="none" xmlns="http://www.w3.org/2000/svg">
<g clip-path="url(#clip0)">
<path d="M66.2751 1.7679C24.9401 1.7679 1.7041 23.1389 1.7041 66.8039V516.927C1.7041 557.771 22.5991 579.156 63.8961 579.156H515.92C557.227 579.156 578.149 558.841 578.149 516.927V66.8039C578.149 24.2029 557.227 1.7679 514.628 1.7679C514.624 1.7679 66.1331 1.6249 66.2751 1.7679Z" fill="#111111" stroke="#EEEEEE" stroke-width="3.408"/>
<path d="M549.718 43.0789C549.718 43.0789 512.641 154.592 398.781 154.592C270.881 154.592 264.752 105.761 178.64 105.761C97.1479 105.761 46.4229 118.438 46.4229 118.438C46.4229 118.438 104.485 53.4085 178.64 53.4085C252.826 53.4085 316.926 100.87 398.781 100.87C496.729 100.87 549.718 43.0789 549.718 43.0789Z" fill="white"/>
<path d="M31.0879 184.888C71.5486 184.888 94.0357 227.91 94.0357 227.91C120.244 210.892 157.573 184.888 193.744 184.888C255.492 184.888 295.404 244.765 295.404 244.765C295.404 244.765 255.492 304.643 193.744 304.643C157.573 304.643 120.244 278.842 94.0357 261.844C94.0357 261.844 71.6095 304.643 31.0879 304.643C31.0879 304.643 51.4199 271.868 51.4199 244.765C51.4199 217.663 31.0879 184.888 31.0879 184.888V184.888ZM224.242 251.292C233.533 251.292 241.056 243.911 241.056 234.762C241.056 225.653 233.533 218.252 224.242 218.252C214.95 218.252 207.427 225.633 207.427 234.762C207.427 243.911 214.95 251.292 224.242 251.292Z" fill="white"/>
<path d="M467.271 167.926C467.156 167.954 467.001 168.046 466.877 168.148C427.822 200.261 401.948 312.792 388.307 314.289C282.572 325.891 193.733 381.073 160.42 404.268C151.072 411.173 153.492 418.993 160.983 423.359C169.457 428.166 181.395 434.584 196.272 441.635C201.319 444.436 246.751 432.073 272.534 442.967C281.216 446.636 230.994 457.905 227.396 455.325C230.511 460.103 301.121 482.646 346.658 490.177C346.533 501.483 404.873 592.778 412.846 576.307C413.95 574.027 384.501 496.18 395.005 496.392C407.136 497.351 419.568 497.872 432.151 497.872C485.846 497.872 558.384 485.702 623.173 470.124C624.352 472.51 651.39 491.807 657.505 487.143C661.069 486.254 640.608 465.849 644.11 464.944C683.423 454.782 718.519 443.628 742.885 433.644C742.885 433.644 779.791 511.576 839.972 540.642C839.972 540.642 790 452.47 797.423 409.447C813.027 319.005 891.921 208.475 891.921 208.475C790.445 273.873 741.535 380.219 741.535 380.219C680.48 357.705 570.401 338.37 479.878 310.589C464.268 305.798 474.495 166.162 467.271 167.926V167.926ZM218.166 395.832C222.46 395.832 225.933 400.398 225.933 406.044C225.933 411.689 222.46 416.329 218.166 416.329C213.872 416.329 210.343 411.689 210.343 406.044C210.343 400.398 213.872 395.832 218.166 395.832Z" fill="white"/>
<path d="M53.5048 435.884C62.0392 435.884 68.9578 428.965 68.9578 420.431C68.9578 411.897 62.0392 404.978 53.5048 404.978C44.9703 404.978 38.0518 411.897 38.0518 420.431C38.0518 428.965 44.9703 435.884 53.5048 435.884Z" fill="white"/>
<path d="M139.905 525.706C149.638 525.706 157.528 517.816 157.528 508.083C157.528 498.35 149.638 490.46 139.905 490.46C130.172 490.46 122.282 498.35 122.282 508.083C122.282 517.816 130.172 525.706 139.905 525.706Z" fill="white"/>
<path d="M311.415 215.248C320.549 215.248 327.953 207.844 327.953 198.71C327.953 189.576 320.549 182.172 311.415 182.172C302.281 182.172 294.877 189.576 294.877 198.71C294.877 207.844 302.281 215.248 311.415 215.248Z" fill="white"/>
</g>
<defs>
<clipPath id="clip0">
<path d="M0 0H580V580H0V0Z" fill="white"/>
</clipPath>
</defs>
</svg>
